X: 36424
T: Seanamhac Tube Station
R: jig
M: 6/8
K: Adorian
AGE EDE|AB/^c/d egf|edB dBG|AGE DE/F/G|
AGE EDE|AB/^c/d ~e3|edB dBG|AdB c2B|
A2E EDE|AB/^c/d ggf|edB dBG|AGE DcB|
AGE EDE|AB/^c/d ~e3|edB dBG|~A3 Agf||
~e3 edB|~d3 dB/^c/d|edB dBG|AGE Dgf|
~e3 edB|~d3 age|edB dBG|~A3 AB/^c/d|
~e3 edB|~d3 d2e|edB dBG|AGE DE/F/G|
AGE EDE|AB/^c/d ~e3|edB edB|A2B c2B||

